icons/file-directory-24.svg

<svg width="24" height="24" viewBox="0 0 24 24" xmlns="http://www.w3.org/2000/svg">
  <path fill-rule="evenodd" clip-rule="evenodd" d="M3.75 4.5C3.61193 4.5 3.5 4.61193 3.5 4.75V19.25C3.5 19.3881 3.61193 19.5 3.75 19.5H20.25C20.3881 19.5 20.5 19.3881 20.5 19.25V7.6875C20.5 7.54943 20.3881 7.4375 20.25 7.4375H11.7789C11.1999 7.4375 10.6583 7.15105 10.3324 6.67238L8.92772 4.6093C8.88117 4.54092 8.8038 4.5 8.72108 4.5H3.75ZM2 4.75C2 3.7835 2.7835 3 3.75 3H8.72108C9.30015 3 9.84173 3.28645 10.1676 3.76512L11.5723 5.8282C11.6188 5.89658 11.6962 5.9375 11.7789 5.9375H20.25C21.2165 5.9375 22 6.721 22 7.6875V19.25C22 20.2165 21.2165 21 20.25 21H3.75C2.7835 21 2 20.2165 2 19.25V4.75Z"/>
</svg>

<svg xmlns="http://www.w3.org/2000/svg" width="24" height="24" viewBox="0 0 24 24"><path fill-rule="evenodd" d="M3.75 4.5a.25.25 0 00-.25.25v14.5c0 .138.112.25.25.25h16.5a.25.25 0 00.25-.25V7.687a.25.25 0 00-.25-.25h-8.471a1.75 1.75 0 01-1.447-.765L8.928 4.61a.25.25 0 00-.208-.11H3.75zM2 4.75C2 3.784 2.784 3 3.75 3h4.971c.58 0 1.12.286 1.447.765l1.404 2.063a.25.25 0 00.207.11h8.471c.966 0 1.75.783 1.75 1.75V19.25A1.75 1.75 0 0120.25 21H3.75A1.75 1.75 0 012 19.25V4.75z"/></svg>
